svgs/regular/rotate-left.svg

<svg xmlns="http://www.w3.org/2000/svg" viewBox="0 0 512 512"><!--! Font Awesome Pro 6.0.0-alpha3 by @fontawesome - https://fontawesome.com License - https://fontawesome.com/license (Commercial License) --><path d="M30.81 49.81c8.969-3.656 19.28-1.656 26.16 5.219l41.1 41.1c41.07-40.38 97.11-64.92 157.1-64.92C379.6 32.11 480 132.5 480 256s-100.4 223.9-223.9 223.9c-52.31 0-103.3-18.33-143.5-51.77c-10.19-8.5-11.56-23.62-3.062-33.81c8.531-10.22 23.62-11.56 33.81-3.062C174.9 417.5 214.9 432 256 432c97.03 0 176-78.97 176-176S353 80 256 80c-47.08 0-90.93 19.29-123.2 50.89l52.14 52.14c6.875 6.875 8.906 17.19 5.219 26.16C186.5 218.2 177.7 224 168 224h-128C26.75 224 16 213.3 16 200v-128C16 62.28 21.84 53.53 30.81 49.81z"/></svg>

<svg xmlns="http://www.w3.org/2000/svg" viewBox="0 0 512 512"><!-- Font Awesome Pro 6.0.0-alpha2 by @fontawesome - https://fontawesome.com License - https://fontawesome.com/license (Commercial License) --><path d="M30.812 49.812C39.781 46.156 50.094 48.156 56.969 55.031L98.965 97.027C140.033 56.652 195.969 32 256 32C379.5 32 480 132.5 480 256S379.5 480 256 480C203.688 480 152.781 461.562 112.625 428.125C102.437 419.625 101.062 404.5 109.562 394.312C118.094 384.094 133.187 382.75 143.375 391.25C174.906 417.531 214.906 432 256 432C353.031 432 432 353.031 432 256S353.031 80 256 80C208.924 80 165.074 99.289 132.824 130.887L184.969 183.031C191.844 189.906 193.875 200.219 190.187 209.188C186.469 218.156 177.719 224 168 224H40C26.75 224 16 213.25 16 200V72C16 62.281 21.844 53.531 30.812 49.812Z"/></svg>
